src/main/resources/icons/JavaUltimateIcons/icons/cdi/gutter/showAutowiredDependencies.svg

<svg xmlns="http://www.w3.org/2000/svg" width="12" height="12" viewBox="0 0 12 12">
  <g fill="none" fill-rule="evenodd">
    <path fill="#40B6E0" fill-opacity=".7" d="M1.10685771,2.02704609 L6.019,7 L4,7 L4.00011917,11.1949245 C3.34859682,10.8361535 2.72300332,10.356826 2.14694343,9.77360609 C-0.115285146,7.48325942 -0.794628003,4.41808609 1.10685771,2.02704609 Z M9.65258628,2.17467275 C11.1961214,3.73739302 12.0027547,5.66082862 11.7554961,7.48445567 L9.5,5.5 L8,5.5 L8,7 L7.808,7 L2.00028628,1.12080609 C4.361972,-0.804313912 7.38951485,-0.117380579 9.65258628,2.17467275 Z"/>
    <path fill="#9AA7B0" d="M9,6.5 L12,9 L9,11.5 L9,10 L5,10 L5,8 L9,8 L9,6.5 Z"/>
  </g>
</svg>

<svg xmlns="http://www.w3.org/2000/svg" width="12" height="12" viewBox="0 0 12 12"><rect id="frame" width="12" height="12" fill="none"/><g fill="none" fill-rule="evenodd"><path fill="#40B6E0" fill-opacity=".7" d="M1.107 2.027L6.019 7H4v4.195a8.153 8.153 0 0 1-1.853-1.421c-2.262-2.29-2.942-5.356-1.04-7.747zm8.546.148c1.543 1.562 2.35 3.486 2.102 5.31L9.5 5.5H8V7h-.192L2 1.12C4.362-.803 7.39-.116 9.653 2.176z"/><path fill="#9AA7B0" d="M9 6.5L12 9l-3 2.5V10H5V8h4V6.5z"/></g></svg>
